relation-one-or-many-to-one-or-many.svg

<svg fill="currentColor" viewBox="0 0 24 24"><path d="M22 13v6h-1l-2-2v2h-2v-2h-6V9H7v2H5V9l-2 2H2V5h1l2 2V5h2v2h6v8h4v-2h2v2l2-2Z"/></svg>

<svg  viewBox="0 0 24 24" fill="currentColor"><path  d="M22 13V19H21L19 17V19H17V17H11V9H7V11H5V9L3 11H2V5H3L5 7V5H7V7H13V15H17V13H19V15L21 13Z"/></svg>
